X: 246
T:Queen Victoria
% Nottingham Music Database
S:Otto Wood, via EF
M:6/8
K:A
P:A
c/2d/2|"A"e2d cea|"D"g2f "A"e3|"F#m"cfe "Bm"d3|"E7"Bed "A"c2d|"A"e2d cea|
"D"g2f "A"e3|"Bm"fBc "E7"dBe|"A"A3 -Aef|\
K:E
"E"geg b2a|"E"gef g2b|
"B7"b2f fga|"E"g2f "B7"eBe|"E"geg b2a|"E"gef g2b|"B7"b2f fgf|
"E"e3 -ede|\
K:A
"A"e2d cea|"D"g2f "A"e3|"F#m"cfe "Bm"d3|"E7"Bed "A"c2d|"A"e2d cea|
"D"g2f "A"e3|"Bm"fBc "E7"dBe|"A"A3 -Ade|\
K:D
"D"fAd f2a|"Em"g2f e3|"A7"ace a2b|
"D"a2g "A7"f3|"D"fAd f2a|"G"gfg b3|"D"agf "A7"eBc|"D"d3 -d2||<end>
<start>
